SVG_Azure_Grouped/AI/Cognitive Services Anomaly Detector.svg

<?xml version="1.0" encoding="UTF-8" standalone="no"?>
<!-- Generated by Microsoft Visio, SVG Export Cognitive Services Anomaly Detector.svg Page-1 -->

<svg
   xmlns:dc="http://purl.org/dc/elements/1.1/"
   xmlns:cc="http://creativecommons.org/ns#"
   xmlns:rdf="http://www.w3.org/1999/02/22-rdf-syntax-ns#"
   xmlns:svg="http://www.w3.org/2000/svg"
   xmlns="http://www.w3.org/2000/svg"
   xmlns:sodipodi="http://sodipodi.sourceforge.net/DTD/sodipodi-0.dtd"
   xmlns:inkscape="http://www.inkscape.org/namespaces/inkscape"
   width="0.78753746in"
   height="0.74723518in"
   viewBox="0 0 56.702605 53.801074"
   xml:space="preserve"
   class="st5"
   version="1.1"
   id="svg40"
   sodipodi:docname="Cognitive Services Anomaly Detector.svg"
   style="font-size:12px;overflow:visible;color-interpolation-filters:sRGB;fill:none;fill-rule:evenodd;stroke-linecap:square;stroke-miterlimit:3"
   inkscape:version="0.92.5 (2060ec1f9f, 2020-04-08)"><metadata
   id="metadata44"><rdf:RDF><cc:Work
       rdf:about=""><dc:format>image/svg+xml</dc:format><dc:type
         rdf:resource="http://purl.org/dc/dcmitype/StillImage" /></cc:Work></rdf:RDF></metadata><sodipodi:namedview
   pagecolor="#ffffff"
   bordercolor="#666666"
   borderopacity="1"
   objecttolerance="10"
   gridtolerance="10"
   guidetolerance="10"
   inkscape:pageopacity="0"
   inkscape:pageshadow="2"
   inkscape:window-width="640"
   inkscape:window-height="480"
   id="namedview42"
   showgrid="false"
   inkscape:zoom="1.4523234"
   inkscape:cx="37.801502"
   inkscape:cy="35.900402"
   inkscape:window-x="0"
   inkscape:window-y="0"
   inkscape:window-maximized="0"
   inkscape:current-layer="svg40" />
	<style
   type="text/css"
   id="style2">
	<![CDATA[
		.st1 {fill:url(#grad0-6);stroke:none;stroke-linecap:butt;stroke-width:34}
		.st2 {fill:#ffffff;stroke:none;stroke-linecap:butt;stroke-width:34}
		.st3 {fill:#50e6ff;stroke:none;stroke-linecap:butt;stroke-width:34}
		.st4 {fill:#faa21d;stroke:none;stroke-linecap:butt;stroke-width:34}
		.st5 {fill:none;fill-rule:evenodd;font-size:12px;overflow:visible;stroke-linecap:square;stroke-miterlimit:3}
	]]>
	</style>

	<defs
   id="Patterns_And_Gradients">
		<linearGradient
   id="grad0-6"
   x1="-7.5831815"
   y1="68.328077"
   x2="43.730461"
   y2="68.328077"
   gradientTransform="scale(0.98165092,1.0186921)"
   gradientUnits="userSpaceOnUse">
			<stop
   offset="0"
   stop-color="#5ea0ef"
   stop-opacity="1"
   id="stop4" />
			<stop
   offset="1"
   stop-color="#0078d4"
   stop-opacity="1"
   id="stop6" />
		</linearGradient>
	</defs>
	<g
   id="g38"
   transform="translate(-33.995562,-34.061296)">
		<title
   id="title10">Page-1</title>
		<g
   id="group18736-1"
   transform="translate(34,-34.0157)">
			<title
   id="title12">Cognitive Services Anomaly Detector.18736</title>
			<g
   id="group18737-2">
				<title
   id="title14">Sheet.18737</title>
				<g
   id="shape18738-3"
   transform="translate(13.7701)">
					<title
   id="title16">Sheet.18738</title>
					<path
   d="m 42.17,117.14 -9.23,-9.32 a 22.9329,23.1774 -180 1 0 -4.09,3.8 l 9.39,9.49 a 2.59535,2.62301 -180 0 0 3.67,0 l 0.25,-0.26 a 2.58905,2.61664 -180 0 0 0.01,-3.71 z"
   class="st1"
   id="path18"
   inkscape:connector-curvature="0"
   style="fill:url(#grad0-6);stroke:none;stroke-width:34;stroke-linecap:butt" />
				</g>
				<g
   id="shape18739-7"
   transform="translate(11.5042,-10.8921)">
					<title
   id="title21">Sheet.18739</title>
					<ellipse
   cx="17.843"
   cy="103.841"
   rx="17.843"
   ry="18.033199"
   class="st2"
   id="ellipse23"
   style="fill:#ffffff;stroke:none;stroke-width:34;stroke-linecap:butt" />
				</g>
				<g
   id="shape18740-9"
   transform="translate(10.0837,-15.371)">
					<title
   id="title26">Sheet.18740</title>
					<path
   d="m 28.18,109.84 -5.13,12.03 -5.17,-15.5 -4.59,8.83 -5.31,-9.1 H 0 a 17.991,18.1828 0 0 1 0.7,-3 h 8.98 l 3.46,5.91 5.34,-10.28 4.91,14.72 2.78,-7.53 h 3.28 l 3.97,7.28 h 2.94 a 18.3816,18.5775 0 0 1 -0.94,3.02 h -3.77 z"
   class="st3"
   id="path28"
   inkscape:connector-curvature="0"
   style="fill:#50e6ff;stroke:none;stroke-width:34;stroke-linecap:butt" />
				</g>
				<g
   id="shape18741-11"
   transform="translate(0,-9.50901)">
					<title
   id="title31">Sheet.18741</title>
					<path
   d="M 42.55,98.06 H 35.69 A 13.0996,13.2392 -180 0 0 33.21,91.62 13.298,13.4397 -180 0 0 25.04,86.5 v -7.05 a 1.90084,1.9211 -180 0 0 -3.8,0 v 6.9 A 13.0586,13.1978 -180 0 0 9.5,98.06 H 1.9 a 1.9046989,1.925 -180 1 0 0,3.85 h 7.74 a 12.9956,13.1342 -180 0 0 2.37,5.73 13.298,13.4397 -180 0 0 8.69,5.2 v 7.11 a 1.905,1.9253043 -180 0 0 3.81,0 v -7.11 a 13.1153,13.2551 -180 0 0 11.1,-10.94 h 6.93 a 1.90084,1.9211 -180 1 0 0,-3.84 z m -14.1,9.47 a 9.76404,9.86812 0 1 1 1.97,-13.82 9.70735,9.81082 0 0 1 -1.97,13.82 z"
   class="st4"
   id="path33"
   inkscape:connector-curvature="0"
   style="fill:#faa21d;stroke:none;stroke-width:34;stroke-linecap:butt" />
				</g>
			</g>
		</g>
	</g>
</svg>

<?xml version="1.0" encoding="UTF-8" standalone="no"?>
<!DOCTYPE svg PUBLIC "-//W3C//DTD SVG 1.1//EN" "http://www.w3.org/Graphics/SVG/1.1/DTD/svg11.dtd">
<!-- Generated by Microsoft Visio, SVG Export Cognitive Services Anomaly Detector.svg Page-1 -->
<svg xmlns="http://www.w3.org/2000/svg" xmlns:xlink="http://www.w3.org/1999/xlink" xmlns:ev="http://www.w3.org/2001/xml-events"
		width="1.73185in" height="1.69269in" viewBox="0 0 124.693 121.874" xml:space="preserve" color-interpolation-filters="sRGB"
		class="st5">
	<style type="text/css">
	<![CDATA[
		.st1 {fill:url(#grad0-6);stroke:none;stroke-linecap:butt;stroke-width:34}
		.st2 {fill:#ffffff;stroke:none;stroke-linecap:butt;stroke-width:34}
		.st3 {fill:#50e6ff;stroke:none;stroke-linecap:butt;stroke-width:34}
		.st4 {fill:#faa21d;stroke:none;stroke-linecap:butt;stroke-width:34}
		.st5 {fill:none;fill-rule:evenodd;font-size:12px;overflow:visible;stroke-linecap:square;stroke-miterlimit:3}
	]]>
	</style>

	<defs id="Patterns_And_Gradients">
		<linearGradient id="grad0-6" x1="0" y1="0" x2="1" y2="0" gradientTransform="rotate(90 0.5 0.5)">
			<stop offset="0" stop-color="#5ea0ef" stop-opacity="1"/>
			<stop offset="1" stop-color="#0078d4" stop-opacity="1"/>
		</linearGradient>
	</defs>
	<g>
		<title>Page-1</title>
		<g id="group18306-1" transform="translate(34,-34.0157)">
			<title>Cognitive Services Anomaly Detector.18306</title>
			<g id="group18307-2">
				<title>Sheet.18307</title>
				<g id="shape18308-3" transform="translate(13.7701,-2.70006E-13)">
					<title>Sheet.18308</title>
					<path d="M42.17 117.14 L32.94 107.82 A22.9329 23.1774 -180 1 0 28.85 111.62 L38.24 121.11 A2.59535 2.62301 -180
								 0 0 41.91 121.11 L42.16 120.85 A2.58905 2.61664 -180 0 0 42.17 117.14 Z" class="st1"/>
				</g>
				<g id="shape18309-7" transform="translate(11.5042,-10.8921)">
					<title>Sheet.18309</title>
					<ellipse cx="17.843" cy="103.841" rx="17.843" ry="18.0332" class="st2"/>
				</g>
				<g id="shape18310-9" transform="translate(10.0837,-15.371)">
					<title>Sheet.18310</title>
					<path d="M28.18 109.84 L23.05 121.87 L17.88 106.37 L13.29 115.2 L7.98 106.1 L0 106.1 A17.991 18.1828 0 0 1 0.7
								 103.1 L9.68 103.1 L13.14 109.01 L18.48 98.73 L23.39 113.45 L26.17 105.92 L29.45 105.92 L33.42 113.2
								 L36.36 113.2 A18.3816 18.5775 0 0 1 35.42 116.22 L31.65 116.22 L28.18 109.84 Z" class="st3"/>
				</g>
				<g id="shape18311-11" transform="translate(-2.79776E-13,-9.50901)">
					<title>Sheet.18311</title>
					<path d="M42.55 98.06 L35.69 98.06 A13.0996 13.2392 -180 0 0 33.21 91.62 A13.298 13.4397 -180 0 0 25.04 86.5
								 L25.04 79.45 A1.90084 1.9211 -180 0 0 21.24 79.45 L21.24 86.35 A13.0586 13.1978 -180 0 0 9.5 98.06
								 L1.9 98.06 A1.90084 1.9211 -180 1 0 1.9 101.91 L9.64 101.91 A12.9956 13.1342 -180 0 0 12.01 107.64
								 A13.298 13.4397 -180 0 0 20.7 112.84 L20.7 119.95 A1.90084 1.9211 -180 0 0 24.51 119.95 L24.51 112.84
								 A13.1153 13.2551 -180 0 0 35.61 101.9 L42.54 101.9 A1.90084 1.9211 -180 1 0 42.54 98.06 L42.55 98.06
								 ZM28.45 107.53 A9.76404 9.86812 0 1 1 30.42 93.71 A9.70735 9.81082 0 0 1 28.45 107.53 Z"
							class="st4"/>
				</g>
			</g>
		</g>
	</g>
</svg>
